X:420
T:Hullichan Jig
M:6/8
L:1/8
K:G
D | G2 G BGB | ded B2 G | cBc ege | dBG A2 D | 
G2 G BGB | ded B2 g | fed cBA | G3 G2 :| 
d | ded Bcd | e2 c e2 e | fgf def | gBd gfe | 
ded Bcd | ece gfe | ded cBA | G3 G2 :|| 

